app/dist/common/images/navigator-global-invts-ltd.svg

<svg height="18" viewBox="0 0 18 18" width="18" xmlns="http://www.w3.org/2000/svg"><path d="m0 0h18v18h-18z" fill="#f0f3fa"/><path d="m8.65 3a6.01 6.01 0 0 0 -5.65 5.64h.8c2.75 0 4.85-2.1 4.85-4.84zm-5.65 6.35a6.01 6.01 0 0 0 5.65 5.65v-.8c0-2.75-2.1-4.85-4.85-4.85zm6.35 5.65a6.01 6.01 0 0 0 5.65-5.65h-.8a4.77 4.77 0 0 0 -4.85 4.85zm5.65-6.36h-.8a4.76 4.76 0 0 1 -4.85-4.84v-.8a6.01 6.01 0 0 1 5.65 5.64z" fill="#a16a38"/></svg>

<!-- by TradingView --><svg width="18" height="18" viewBox="0 0 18 18" xmlns="http://www.w3.org/2000/svg"><path fill="#F0F3FA" d="M0 0h18v18H0z"/><path d="M8.65 3A6.01 6.01 0 0 0 3 8.64h.8c2.75 0 4.85-2.1 4.85-4.84V3ZM3 9.35A6.01 6.01 0 0 0 8.65 15v-.8c0-2.75-2.1-4.85-4.85-4.85H3ZM9.35 15A6.01 6.01 0 0 0 15 9.35h-.8a4.77 4.77 0 0 0-4.85 4.85v.8ZM15 8.64h-.8A4.76 4.76 0 0 1 9.35 3.8V3A6.01 6.01 0 0 1 15 8.64Z" fill="#A16A38"/></svg>
